X: 28
T:Sailor's Hornpipe
% Nottingham Music Database
S:Eric Foxley
M:4/4
L:1/4
K:G
P:A
g/2f/2|"G"gG Gd/2c/2|"G"B/2d/2g g/2b/2a/2g/2|"A7"aA AA/2G/2|\
"D7"F/2A/2d de/2f/2|
"G"g/2f/2e/2d/2 "C"e/2d/2c/2B/2|"Am"c/2B/2A/2G/2 "D7"G/2F/2E/2D/2|\
"C"E/2G/2"d"F/2A/2 "c"G/2B/2"f#"A/2c/2|"G"BG G:|
P:B
d/2c/2|"G"B/2d/2g/2d/2 B/2d/2g/2d/2|"C"ec ce/2d/2|\
"A7"^c/2e/2a/2e/2 c/2e/2a/2e/2|"D"fd dB|
"C"ce e/2d/2c/2B/2|"Am"c/2B/2A/2G/2 "D7"G/2F/2E/2D/2|\
"C"E/2G/2"d"F/2A/2 "c"G/2B/2"f#"A/2c/2|"G"BG G:|


